X:512
T:Tea with Alice (ABAC)
M:4/4
K:G
L:1/8
G2 Bd g3 b | a>g fe d/e/d/c/ BA | G2 Bd g3 b | a>g fe d4 | 
G2 Bd g3 b | a>g fe d/e/d/c/ BA | G2 Bd g3 b | a>g fe d4 || 
b2 b>a c'bag | fdef g/f/g/f/ b2 | b2 b>a c'bag | fdef g2 g2 | 
b2 b>a c'bag | fdef g/f/g/f/ b2 | b2 b>a c'bag | fdef g2 g2 || 
G2 Bd g3 b | a>g fe d/e/d/c/ BA | G2 Bd g3 b | a>g fe d4 | 
G2 Bd g3 b | a>g fe d/e/d/c/ BA | G2 Bd g3 b | a>g fe d4 || 
B>B Bd c>c ce | dg g/f/g/a/ b>a g/f/e/d/ | B>B Bd c>c ce | dggf g2 g2 | 

